X: 1
T: Duncan Davidson's
M: 4/4
L: 1/8
R: hornpipe
K: Dmaj
DFAB A<F d2|DFAB A<F E2|DFAB A<F d>e|(3fga (3efg f<d d2|
DFAB A<F d2|DFAB A<F E2|DFAB A<F d>e|(3fga (3efg f<d d>e|
f<d fa gfed|(3cBA eAfA e>e|f<d fa gfed|(3Bcd (3efg f<d d>e|
f<d fa gfed|(3cBA eAfA e>e|(3fga (3agf (3gab (3bag|(3fga (3efg f<d d2|
